static/img/services/circleci.svg

<svg width="135" height="32" viewBox="0 0 135 32" fill="none" xmlns="http://www.w3.org/2000/svg">
<path d="M14.0957 19.3336C15.9367 19.3336 17.4292 17.8411 17.4292 16C17.4292 14.1589 15.9367 12.6664 14.0957 12.6664C12.2546 12.6664 10.7621 14.1589 10.7621 16C10.7621 17.8411 12.2546 19.3336 14.0957 19.3336Z" fill="#FBFBFB"/>
<path d="M14.0957 2C7.57265 2 2.09152 6.46201 0.536508 12.5C0.523122 12.5531 0.513306 12.6089 0.513306 12.6664C0.513306 13.0345 0.811814 13.3331 1.17993 13.3331H6.82482C7.09388 13.3331 7.32367 13.1733 7.42897 12.9435C7.42897 12.9435 7.43745 12.9279 7.44013 12.9203C8.60382 10.4091 11.1454 8.66669 14.0948 8.66669C18.1449 8.66669 21.4285 11.9494 21.4285 16C21.4285 20.0506 18.1458 23.3333 14.0957 23.3333C11.1463 23.3333 8.60516 21.5909 7.44102 19.0801C7.4379 19.0721 7.42942 19.0565 7.42942 19.0565C7.37669 18.9404 7.2917 18.842 7.18457 18.7729C7.07745 18.7039 6.95272 18.6671 6.82526 18.6669H1.18038C0.811814 18.6669 0.513306 18.9655 0.513306 19.3336C0.513306 19.3911 0.522676 19.4469 0.536508 19.5C2.09152 25.538 7.57265 30 14.0957 30C21.8279 30 28.0957 23.7318 28.0957 16C28.0957 8.26823 21.8279 2 14.0957 2ZM50.7029 19.2818H48.7985C48.7355 19.2819 48.6735 19.2965 48.6171 19.3244C48.5606 19.3523 48.5114 19.3929 48.4732 19.4429C47.3671 21.0778 45.4966 22.1531 43.374 22.1531C39.9753 22.1531 37.2205 19.3978 37.2205 15.9996C37.2205 12.6008 39.9753 9.84555 43.374 9.84555C45.497 9.84555 47.3671 10.9218 48.4737 12.5562C48.5118 12.6063 48.5609 12.6468 48.6172 12.6748C48.6736 12.7027 48.7356 12.7173 48.7985 12.7173H50.7029C50.7568 12.7174 50.8102 12.7068 50.86 12.6862C50.9098 12.6656 50.9551 12.6355 50.9933 12.5974C51.0314 12.5593 51.0617 12.5141 51.0824 12.4643C51.1031 12.4145 51.1138 12.3611 51.1138 12.3072C51.1136 12.2431 51.0981 12.18 51.0688 12.123C49.6498 9.31234 46.7379 7.38386 43.3745 7.38386C38.6166 7.38386 34.7588 11.2413 34.7588 15.9996C34.7588 20.7574 38.6166 24.6152 43.3745 24.6152C46.7379 24.6152 49.6498 22.6868 51.0683 19.8761C51.0978 19.8192 51.1134 19.756 51.1138 19.6919C51.1138 19.638 51.1031 19.5846 51.0824 19.5348C51.0617 19.485 51.0314 19.4398 50.9933 19.4017C50.9551 19.3636 50.9098 19.3335 50.86 19.3129C50.8102 19.2923 50.7568 19.2817 50.7029 19.2818ZM56.4468 4.513C56.4468 4.94832 56.2739 5.3658 55.9661 5.67361C55.6583 5.98143 55.2408 6.15435 54.8055 6.15435C54.3702 6.15435 53.9527 5.98143 53.6449 5.67361C53.337 5.3658 53.1641 4.94832 53.1641 4.513C53.1641 4.07769 53.337 3.66021 53.6449 3.35239C53.9527 3.04458 54.3702 2.87165 54.8055 2.87165C55.2408 2.87165 55.6583 3.04458 55.9661 3.35239C56.2739 3.66021 56.4468 4.07769 56.4468 4.513ZM56.0368 23.7947V7.79437H53.5751V23.7942C53.5752 23.903 53.6184 24.0072 53.6953 24.0841C53.7722 24.1609 53.8764 24.2042 53.9851 24.2043H55.6267C55.6805 24.2044 55.7338 24.1938 55.7836 24.1732C55.8333 24.1527 55.8785 24.1225 55.9166 24.0845C55.9547 24.0464 55.9849 24.0013 56.0055 23.9515C56.0261 23.9018 56.0368 23.8485 56.0368 23.7947ZM66.7094 7.39457C64.2268 7.51147 62.2439 8.69792 60.9592 10.5095V8.20442C60.9591 8.09571 60.9159 7.99147 60.839 7.9146C60.7621 7.83772 60.6579 7.79448 60.5492 7.79437H58.9081C58.7993 7.79448 58.6951 7.83772 58.6182 7.9146C58.5414 7.99147 58.4981 8.09571 58.498 8.20442V23.7942C58.498 24.0209 58.6809 24.2043 58.9081 24.2043H60.5492C60.6031 24.2044 60.6564 24.1938 60.7062 24.1732C60.756 24.1526 60.8012 24.1224 60.8393 24.0843C60.8774 24.0462 60.9076 24.001 60.9282 23.9512C60.9487 23.9015 60.9593 23.8481 60.9592 23.7942V16C60.9592 12.7392 63.4963 10.0718 66.7023 9.86028C66.7563 9.86028 66.8098 9.84963 66.8597 9.82895C66.9096 9.80827 66.9549 9.77796 66.993 9.73975C67.0312 9.70154 67.0615 9.65619 67.0821 9.60628C67.1027 9.55637 67.1133 9.50288 67.1132 9.44888V7.80418C67.113 7.69661 67.0706 7.59343 66.9951 7.51683C66.9196 7.44022 66.817 7.39632 66.7094 7.39457ZM83.0569 19.2818H81.1525C81.0895 19.2818 81.0274 19.2963 80.971 19.3243C80.9146 19.3522 80.8654 19.3928 80.8272 19.4429C79.7211 21.0778 77.8506 22.1531 75.7285 22.1531C72.3293 22.1531 69.5745 19.3978 69.5745 15.9996C69.5745 12.6008 72.3293 9.84555 75.7285 9.84555C77.8506 9.84555 79.7211 10.9218 80.8272 12.5562C80.8654 12.6063 80.9146 12.6469 80.971 12.6748C81.0275 12.7027 81.0896 12.7173 81.1525 12.7173H83.0569C83.1108 12.7174 83.1642 12.7068 83.214 12.6862C83.2639 12.6656 83.3091 12.6355 83.3473 12.5974C83.3855 12.5593 83.4157 12.5141 83.4364 12.4643C83.4571 12.4145 83.4678 12.3611 83.4678 12.3072C83.4677 12.2431 83.452 12.1799 83.4223 12.123C82.0039 9.31234 79.092 7.38386 75.7289 7.38386C70.9707 7.38386 67.1132 11.2413 67.1132 15.9996C67.1132 20.7574 70.9707 24.6152 75.7289 24.6152C79.092 24.6152 82.0039 22.6868 83.4223 19.8761C83.4518 19.8192 83.4674 19.756 83.4678 19.6919C83.4678 19.638 83.4571 19.5846 83.4364 19.5348C83.4157 19.485 83.3855 19.4398 83.3473 19.4017C83.3091 19.3636 83.2639 19.3335 83.214 19.3129C83.1642 19.2923 83.1108 19.2817 83.0569 19.2818ZM87.9798 2.46137H86.3387C86.23 2.46149 86.1258 2.50473 86.0489 2.58161C85.972 2.65848 85.9288 2.76271 85.9286 2.87143V23.7947C85.9286 24.0214 86.112 24.2047 86.3387 24.2047H87.9798C88.0886 24.2047 88.193 24.1616 88.2699 24.0847C88.3469 24.0078 88.3902 23.9035 88.3903 23.7947V2.87143C88.3902 2.76263 88.3469 2.65834 88.2699 2.58145C88.193 2.50456 88.0886 2.46137 87.9798 2.46137ZM99.4677 7.38431C94.7094 7.38431 90.852 11.2417 90.852 16C90.852 20.7578 94.7094 24.6157 99.4677 24.6157C102.831 24.6157 105.742 22.6872 107.161 19.8766C107.193 19.8142 107.209 19.7446 107.206 19.6745C107.204 19.6043 107.183 19.536 107.146 19.4762C107.109 19.4165 107.058 19.3672 106.996 19.3332C106.935 19.2992 106.866 19.2817 106.796 19.2823H104.892C104.827 19.2822 104.764 19.2975 104.706 19.3269C104.649 19.3563 104.599 19.399 104.561 19.4514C103.455 21.0813 101.587 22.154 99.4677 22.154C96.3474 22.154 93.7711 19.8311 93.3695 16.821H107.662C107.767 16.8208 107.868 16.7803 107.944 16.7078C108.02 16.6354 108.066 16.5364 108.071 16.4315C108.078 16.2887 108.083 16.1446 108.083 16.0004C108.083 11.2417 104.226 7.38431 99.4677 7.38431ZM93.5368 14.3589C94.2552 11.7575 96.6375 9.846 99.4677 9.846C102.298 9.846 104.68 11.7575 105.399 14.3589H93.5368ZM131.912 2.05131C131.259 2.05131 130.633 2.31067 130.171 2.77233C129.71 3.23398 129.45 3.86012 129.45 4.513C129.45 5.16588 129.71 5.79203 130.171 6.25368C130.633 6.71534 131.259 6.97469 131.912 6.97469C132.565 6.97469 133.191 6.71534 133.653 6.25368C134.114 5.79203 134.374 5.16588 134.374 4.513C134.374 3.86012 134.114 3.23398 133.653 2.77233C133.191 2.31067 132.565 2.05131 131.912 2.05131ZM133.964 7.79437V23.7942C133.963 23.903 133.92 24.0072 133.843 24.0841C133.766 24.1609 133.662 24.2042 133.553 24.2043H130.271C130.217 24.2044 130.164 24.1938 130.114 24.1732C130.064 24.1526 130.019 24.1224 129.981 24.0843C129.943 24.0462 129.913 24.001 129.892 23.9512C129.872 23.9015 129.861 23.8481 129.861 23.7942V7.79437H133.964ZM119.159 24.6157C123.181 24.6157 126.555 21.86 127.506 18.1351C127.512 18.1077 127.516 18.0797 127.516 18.0516C127.516 17.9428 127.473 17.8385 127.396 17.7615C127.319 17.6845 127.215 17.6412 127.106 17.6411H123.634C123.555 17.6413 123.478 17.6639 123.412 17.7064C123.346 17.7489 123.294 17.8094 123.261 17.8807L123.26 17.8803C122.547 19.4331 120.98 20.5124 119.159 20.5124C116.667 20.5124 114.647 18.4925 114.647 16C114.647 13.5075 116.667 11.4876 119.159 11.4876C120.023 11.4875 120.869 11.7355 121.596 12.2021C122.323 12.6687 122.901 13.3343 123.26 14.1197L123.261 14.1188C123.294 14.1902 123.346 14.2508 123.412 14.2933C123.478 14.3359 123.555 14.3586 123.634 14.3589H127.106C127.215 14.3588 127.319 14.3155 127.396 14.2385C127.473 14.1615 127.516 14.0572 127.516 13.9484C127.515 13.9207 127.512 13.8932 127.506 13.8663C126.557 10.1405 123.181 7.38431 119.159 7.38431C114.402 7.38431 110.544 11.2422 110.544 16C110.544 20.7583 114.402 24.6157 119.159 24.6157Z" fill="#FBFBFB"/>
</svg>

<svg width="135" height="32" fill="none" xmlns="http://www.w3.org/2000/svg"><path d="M14.096 19.334a3.334 3.334 0 1 0 0-6.668 3.334 3.334 0 0 0 0 6.668Z" fill="#FBFBFB"/><path d="M14.096 2C7.573 2 2.092 6.462.536 12.5a.667.667 0 0 0 .643.833h5.646c.269 0 .499-.16.604-.39l.011-.023a7.333 7.333 0 1 1 0 6.16.664.664 0 0 0-.616-.413H1.181a.667.667 0 0 0-.643.833C2.092 25.538 7.573 30 14.096 30c7.732 0 14-6.268 14-14s-6.268-14-14-14Zm36.607 17.282h-1.905a.41.41 0 0 0-.325.16 6.154 6.154 0 1 1 0-6.887.409.409 0 0 0 .325.162h1.905a.41.41 0 0 0 .366-.594 8.616 8.616 0 1 0 0 7.753.406.406 0 0 0-.366-.594Zm5.744-14.769a1.641 1.641 0 1 1-3.283 0 1.641 1.641 0 0 1 3.283 0Zm-.41 19.282v-16h-2.462v16a.41.41 0 0 0 .41.41h1.642a.408.408 0 0 0 .41-.41Zm10.672-16.4c-2.482.116-4.465 1.303-5.75 3.114V8.204a.41.41 0 0 0-.41-.41h-1.64a.41.41 0 0 0-.411.41v15.59c0 .227.183.41.41.41h1.641a.409.409 0 0 0 .41-.41V16a6.155 6.155 0 0 1 5.743-6.14.411.411 0 0 0 .411-.411V7.804a.41.41 0 0 0-.404-.41Zm16.348 11.887h-1.904a.408.408 0 0 0-.326.16 6.154 6.154 0 1 1 0-6.887.409.409 0 0 0 .326.162h1.904a.41.41 0 0 0 .365-.594 8.616 8.616 0 1 0 0 7.753.406.406 0 0 0-.365-.594Zm4.923-16.82h-1.641a.41.41 0 0 0-.41.41v20.923c0 .226.183.41.41.41h1.64a.41.41 0 0 0 .411-.41V2.87a.41.41 0 0 0-.41-.41Zm11.488 4.922a8.616 8.616 0 1 0 7.693 12.493.405.405 0 0 0-.165-.544.404.404 0 0 0-.2-.05h-1.904a.408.408 0 0 0-.331.168 6.145 6.145 0 0 1-5.093 2.703 6.154 6.154 0 0 1-6.099-5.333h14.293a.41.41 0 0 0 .409-.39 8.615 8.615 0 0 0-8.603-9.047Zm-5.931 6.975a6.156 6.156 0 0 1 5.93-4.513 6.157 6.157 0 0 1 5.932 4.513H93.537ZM131.912 2.05a2.463 2.463 0 1 0 0 4.926 2.463 2.463 0 0 0 0-4.926Zm2.052 5.743v16a.415.415 0 0 1-.411.41h-3.282a.409.409 0 0 1-.41-.41v-16h4.103Zm-14.805 16.822c4.022 0 7.396-2.756 8.347-6.48a.41.41 0 0 0-.4-.494h-3.472a.412.412 0 0 0-.373.239h-.001A4.511 4.511 0 0 1 114.647 16a4.512 4.512 0 0 1 8.613-1.88l.001-.001a.413.413 0 0 0 .373.24h3.472a.41.41 0 0 0 .4-.493A8.617 8.617 0 0 0 110.544 16a8.616 8.616 0 0 0 8.615 8.616Z" fill="#FBFBFB"/></svg>
